public/images/chef.svg

<svg xmlns:xlink="http://www.w3.org/1999/xlink" xmlns="http://www.w3.org/2000/svg" width="17" height="17" viewBox="0 0 17 17" fill="none">
<g clip-path="url(#clip0)">
<path d="M13.2905 2.39538C12.8522 2.39538 12.4229 2.49366 12.0316 2.68179C11.58 1.10912 10.1313 0 8.46643 0C6.81712 0 5.37033 1.09816 4.90937 2.6542C4.53394 2.4842 4.12464 2.39541 3.70891 2.39541C2.10373 2.39541 0.797852 3.70129 0.797852 5.30647C0.797852 6.91164 2.10373 8.21752 3.70891 8.21752C3.71379 8.21752 3.71867 8.21733 3.72352 8.21729L4.25859 15.1733C4.26845 15.3016 4.37882 15.4037 4.50751 15.4037H5.61885C5.73111 15.8614 6.14469 16.2022 6.6366 16.2022C6.97564 16.2022 7.69791 15.8597 8.18244 15.6084C8.08914 15.9024 7.87046 16.2788 7.35943 16.5266C7.24498 16.582 7.19006 16.7195 7.23465 16.8386C7.28546 16.9743 7.44672 17.0388 7.57721 16.9756C8.04803 16.7473 8.33046 16.4332 8.4997 16.1292C8.66893 16.4332 8.95133 16.7473 9.42218 16.9756C9.5529 17.0389 9.71364 16.9741 9.7647 16.8386C9.80956 16.7196 9.75418 16.582 9.63993 16.5266C9.1289 16.2788 8.91019 15.9024 8.81692 15.6084C9.30145 15.8597 10.0237 16.2022 10.3628 16.2022C10.8546 16.2022 11.2682 15.8615 11.3805 15.4037H12.4918C12.6206 15.4037 12.7309 15.3016 12.7408 15.1733L13.1003 10.4997C13.1109 10.3623 13.0081 10.2424 12.8707 10.2318C12.7326 10.2212 12.6134 10.324 12.6027 10.4615L12.4862 11.977H10.3912L10.8751 9.07364C10.8977 8.93773 10.8059 8.80914 10.67 8.78649C10.5336 8.76372 10.4055 8.85569 10.3828 8.99159L9.88523 11.977H8.74922V8.50032C8.74922 8.36252 8.63752 8.25079 8.4997 8.25079C8.36187 8.25079 8.25017 8.36252 8.25017 8.50032V11.977H7.11416L6.61658 8.99159C6.5939 8.85569 6.46564 8.76392 6.3294 8.78649C6.1935 8.80914 6.10163 8.9377 6.12431 9.07364L6.60821 11.977H4.51326L4.2205 8.17154C4.94154 8.04132 5.59983 7.64022 6.04382 7.04422C6.12617 6.93372 6.10332 6.7774 5.99279 6.69506C5.88226 6.61271 5.72597 6.63549 5.64362 6.74609C5.18326 7.36407 4.47809 7.71848 3.70891 7.71848C2.37889 7.71848 1.2969 6.63645 1.2969 5.30647C1.2969 3.97648 2.37895 2.89446 3.70891 2.89446C4.14556 2.89446 4.57355 3.01259 4.94659 3.23612C5.09212 3.32334 5.28599 3.23721 5.31943 3.07136C5.61992 1.58087 6.9434 0.499044 8.46639 0.499044C10.0064 0.499044 11.3327 1.59538 11.62 3.10586C11.6524 3.27583 11.8526 3.36292 11.999 3.26982C12.3853 3.02425 12.8319 2.89446 13.2905 2.89446C14.6205 2.89446 15.7025 3.97648 15.7025 5.30647C15.7025 6.63645 14.6204 7.71848 13.2905 7.71848C12.559 7.71848 11.8753 7.39173 11.4146 6.82203C11.328 6.71491 11.171 6.69821 11.0637 6.78487C10.9566 6.8715 10.9399 7.02865 11.0266 7.13576C11.4733 7.68827 12.094 8.05118 12.7788 8.17247L12.6897 9.3306C12.6791 9.46799 12.782 9.58792 12.9194 9.59851C12.9259 9.59901 12.9324 9.59924 12.9388 9.59924C13.0679 9.59924 13.1772 9.49973 13.1873 9.36884L13.2758 8.21726C13.2807 8.21729 13.2856 8.21746 13.2905 8.21746C14.8956 8.21746 16.2015 6.91158 16.2015 5.3064C16.2015 3.70123 14.8957 2.39538 13.2905 2.39538ZM6.63663 15.7031C6.33395 15.7031 6.08768 15.4568 6.08768 15.1541C6.08768 14.8515 6.33395 14.6052 6.63663 14.6052C6.83984 14.6052 7.44739 14.8814 7.97356 15.1541C7.44742 15.4269 6.83987 15.7031 6.63663 15.7031ZM10.3628 15.7031C10.1596 15.7031 9.552 15.4269 9.02587 15.1541C9.55197 14.8814 10.1596 14.6052 10.3628 14.6052C10.6655 14.6052 10.9117 14.8515 10.9117 15.1541C10.9117 15.4569 10.6655 15.7031 10.3628 15.7031ZM12.4478 12.476L12.261 14.9046H11.3805C11.2682 14.4469 10.8547 14.1061 10.3628 14.1061C9.936 14.1061 8.90222 14.6485 8.49966 14.8689C8.09714 14.6485 7.06333 14.1061 6.6366 14.1061C6.14473 14.1061 5.73115 14.4468 5.61885 14.9046H4.73844L4.55164 12.476H12.4478Z" fill="black"/>
<path d="M10.6267 6.42411C10.5488 6.31049 10.3936 6.28147 10.2798 6.35943C9.74493 6.72616 9.11809 6.92 8.46698 6.92C7.97172 6.92 7.49694 6.81027 7.05574 6.59385C6.93202 6.53315 6.78254 6.58429 6.72185 6.708C6.66115 6.83172 6.71225 6.9812 6.836 7.04193C7.3462 7.29218 7.89492 7.41905 8.46701 7.41905C9.21926 7.41905 9.94369 7.19499 10.562 6.77102C10.6757 6.69309 10.7046 6.5378 10.6267 6.42411Z" fill="black"/>
</g>
<defs>
<clipPath id="clip0">
<rect width="17" height="17" fill="white"/>
</clipPath>
</defs>
</svg>

<svg xmlns="http://www.w3.org/2000/svg" width="17" height="17" fill="none"><g fill="#000" clip-path="url(#a)"><path d="M13.29 2.395c-.438 0-.867.099-1.258.287A3.71 3.71 0 0 0 8.466 0 3.72 3.72 0 0 0 4.91 2.654a2.91 2.91 0 1 0-1.2 5.564h.015l.535 6.955c.01.129.12.23.249.23h1.11a1.05 1.05 0 0 0 1.019.8c.339 0 1.06-.343 1.545-.595-.093.294-.312.67-.823.919a.25.25 0 0 0-.124.312c.05.135.212.2.342.137a2.04 2.04 0 0 0 .923-.847c.169.304.451.618.922.847a.25.25 0 0 0 .343-.137.25.25 0 0 0-.125-.312c-.511-.248-.73-.625-.823-.919.484.252 1.207.594 1.546.594.492 0 .905-.34 1.018-.798h1.11c.13 0 .24-.102.25-.23l.36-4.674a.25.25 0 1 0-.498-.039l-.117 1.516h-2.095l.484-2.903a.25.25 0 0 0-.492-.082l-.498 2.985H8.75V8.5a.25.25 0 1 0-.499 0v3.477H7.114l-.497-2.985a.25.25 0 1 0-.493.082l.484 2.903H4.513l-.292-3.805a2.93 2.93 0 0 0 1.823-1.128.25.25 0 1 0-.4-.298 2.4 2.4 0 0 1-1.935.972 2.415 2.415 0 0 1-2.412-2.412 2.415 2.415 0 0 1 3.65-2.07c.145.087.339.001.372-.165a3.212 3.212 0 0 1 6.3.034c.033.17.234.258.38.165a2.415 2.415 0 0 1 3.704 2.037 2.415 2.415 0 0 1-2.412 2.411 2.4 2.4 0 0 1-1.876-.896.25.25 0 1 0-.388.314 2.9 2.9 0 0 0 1.752 1.036l-.09 1.159a.25.25 0 0 0 .498.038l.089-1.152h.014a2.914 2.914 0 0 0 2.912-2.91 2.914 2.914 0 0 0-2.912-2.912M6.638 15.703a.55.55 0 0 1 0-1.098c.203 0 .81.276 1.337.55-.527.272-1.134.548-1.337.548m3.726 0c-.203 0-.811-.276-1.337-.549.526-.273 1.134-.549 1.337-.549a.55.55 0 0 1 0 1.098m2.085-3.227-.187 2.429h-.88a1.05 1.05 0 0 0-1.018-.799c-.427 0-1.46.543-1.863.763-.403-.22-1.437-.763-1.863-.763-.492 0-.906.34-1.018.799h-.88l-.187-2.429z"/><path d="M10.627 6.424a.25.25 0 0 0-.347-.065 3.2 3.2 0 0 1-1.813.561c-.495 0-.97-.11-1.411-.326a.25.25 0 1 0-.22.448c.51.25 1.059.377 1.631.377.752 0 1.477-.224 2.095-.648a.25.25 0 0 0 .065-.347"/></g><defs><clipPath id="a"><path fill="#fff" d="M0 0h17v17H0z"/></clipPath></defs></svg>
